X: 255
T: Ebenezer
B: canberra pickers and fiddlers
B: tunes
M:4/4
L:1/8
Q: 1/4=100
K:G
V:1 
Bc | dBdB G2Bc | dBdB G2Bc | d2g2 f2g2 | a3b a2AB |
cBAG F2AB | cBAG F2AB | gfed BAFD | G3FG2 :|
|: Bc | d2g2 gfg2 | b2ba b2ef | g2 g2 g2 g2 | b2ba b2g2 |
agbg ageg | agbg agef | gfed BAFD | G3F G2 :||
% abcbook-tune_id 63ae8f1c4fc83a621daa6cdd
% abcbook-tune_composer_id 
% abcbook-link-0 https://www.youtube.com/watch?v=uCvL0dQ0E1E
% abcbook-link-start-at-0 30
% abcbook-link-end-at-0 244
% abcbook-boost 0
% abcbook-difficulty 0
% abcbook-tags canberra pickers and fiddlers,old time tunes,steve ryan,© free
% abcbook-tablature 
% abcbook-transpose 
% abcbook-tuning GDAD
% abcbook-lastupdated 1677371434046
% abcbook-src-url https://tunebook.net/scrape/tunes.abc
% abcbook-soundfonts 
% abcbook-repeats 1


